X:124
%%musicspace -15
%%titlespace -15
T:Sweets of May
M:6/8
L:1/8
K:G
dc | "G"B2 G "D"AFD | "G"GAG Gdc | B2G GAB | "C"c3 cdc | "G"B2G "D7"AFD | "G"GAG Gdc | 
"G"B2G "D7"AFD | "G"G3 G :|]|: z2 | "Am"ABA A2G | "Em"E2F G3 | "Am"ABA c2d | "Em"e2d c2B |
"Am"ABA A2G | "Em"E2F G3 | "Am"ABA "E7"c2B | "Am"A3 A :|]|: z2 | "G"d3 dcd | D3 D3 | 
"D7"c3 cBc | D3 DEF | "G"G2D G2A | B2G B2c | "D7"d2D DEF | "G"G3- G :|

